X:1
T:Charleroi, 86.86.86 D
T:Charleroi, 86.86.86 D
T:W. D. Howard, 1904
T:Public Domain Courtesy of the Cyber Hymnal™
C:W. D. Howard, 1904
Z:Public Domain
Z:Courtesy of the Cyber Hymnal™
%%score ( 1 2 ) ( 3 4 )
L:1/8
Q:1/4=107
M:6/8
K:F
V:1 treble 
V:2 treble 
V:3 bass 
V:4 bass 
V:1
 [Ac] | [Ac]2 [FA] [FA]2 [Fc] | [Fc]2 [FB] [FB]2 [DG] | [CF]2 [CF] ([EG][DF])[EG] | %4
 [FA]3- [FA]2 [Fc] | [Fc]2 [FA] [FA]2 [Fc] | [Fc]2 [FB] [FB]2 [DG] | [CF]2 [FA] (GD)[CE] | %8
 [CF]3- [CF]2 [CF] | [EG]2 [EG] [EG]2 [Gc] | [Fc]2 [F=B] [FB]2 [Fc] | [Fd]2 [Ec] [Ge]2 [Fd] | %12
 c3- [Gc]2 [GB] | [FA]2 [F^G] [FA]2 [_Ec] | [Dc]2 [DB] [DB]2 [DG] | [CF]2 [FA] (GD)[CE] | %16
 [CF]3- [CF]2 [Fc] | [Ec]2 [Fc] (cd)[Ec] | [Fc]2 [GB] [FA]2 [G^c] | [Fd]2 [Fd] de[Fd] | %20
 c3- [Gc]2 [GB] | [FA]2 [F^G] [FA]2 [_Ec] | [Dc]2 [DB] [DB]2 [DG] | [CF]2 [FA] (GD)[CE] | %24
 [CF]3- [CF]2 |] %25
V:2
 x | x6 | x6 | x6 | x6 | x6 | x6 | x3 D2 x | x6 | x6 | x6 | x6 | E2 F x3 | x6 | x6 | x3 D2 x | x6 | %17
 x3 E2 x | x6 | x3 F2 x | E2 F x3 | x6 | x6 | x3 D2 x | x5 |] %25
V:3
 [F,C] | [F,F]2 [F,C] [F,C]2 [A,,_E] | [B,,D]2 [B,,D] [B,,D]2 [B,,B,] | %3
 [C,A,]2 [C,A,] [C,C]2 [C,C] | [F,C]3- [F,C]2 [F,A,] | [F,A,]2 [F,C] [F,C]2 [F,_E] | %6
 [B,,D]2 [B,,D] [B,,D]2 [B,,B,] | [C,A,]2 [C,C] [C,B,]2 [C,G,] | [F,A,]3- [F,A,]2 [F,A,] | %9
 [C,C]2 [C,C] [C,C]2 [E,C] | [G,D]2 [G,D] [G,D]2 [A,C] | [G,=B,]2 [G,C] [G,B,]2 [G,,B,] | %12
 C3- [E,C]2 [E,C] | [F,C]2 [F,=B,] [F,C]2 [A,,F,] | (F,^F,)[B,,G,] [B,,G,]2 [B,,B,] | %15
 [C,A,]2 [C,C] [C,B,]2 [C,G,] | [F,A,]3- [F,A,]2 [F,A,] | [C,G,]2 [C,A,] [C,B,]2 [C,B,] | %18
 [D,A,]2 [E,C] [F,C]2 [E,A,] | [D,A,]2 [D,A,] [G,=B,]2 [G,B,] | ([C,C]2 [D,C] [E,C]2) [E,C] | %21
 [F,C]2 [F,=B,] [F,C]2 [A,,F,] | (F,^F,)[B,,G,] [B,,G,]2 [B,,B,] | [C,A,]2 [C,C] [C,B,]2 [C,G,] | %24
 [F,A,]3- [F,A,]2 |] %25
V:4
 x | x6 | x6 | x6 | x6 | x6 | x6 | x6 | x6 | x6 | x6 | x6 | C,2 D, x3 | x6 | B,,2 x4 | x6 | x6 | %17
 x6 | x6 | x6 | x6 | x6 | B,,2 x4 | x6 | x5 |] %25

